src/Icon/svgs/eye-off.svg

<svg width="24" height="24" viewBox="0 0 24 24" fill="none" xmlns="http://www.w3.org/2000/svg">
<path fill-rule="evenodd" clip-rule="evenodd" d="M6.89725 5.48245C5.05017 6.67312 3.481 8.56587 2.21115 11.1056C1.92965 11.6686 1.92962 12.3312 2.21105 12.8942C4.52401 17.5213 7.83009 20.0015 12 20.0015C14.5637 20.0015 16.8008 19.0641 18.6814 17.2666L17.2676 15.8528C15.7504 17.2853 13.9945 18.0015 12 18.0015C8.66667 18.0015 6 16.001 4 12C5.20831 9.58337 6.65997 7.89675 8.35496 6.94015L6.89725 5.48245ZM18.5875 14.3443C19.0904 13.6591 19.5613 12.8777 20 12C18 8 15.3333 6 12 6C11.4506 6 10.9194 6.05433 10.4062 6.16298L8.78817 4.54493C9.79299 4.18389 10.8645 4 12 4C16.1698 4 19.4759 6.47957 21.7889 11.1056C22.0703 11.6686 22.0704 12.3312 21.7889 12.8942C21.2507 13.9709 20.6588 14.9314 20.0146 15.7714L18.5875 14.3443ZM9.96841 8.5536C8.79025 9.2496 8 10.5325 8 12C8 12.377 8.05243 12.748 8.15476 13.1047C8.64294 14.8063 10.204 16 12 16C13.4675 16 14.7504 15.2098 15.4464 14.0316L14.4148 13H13.7324C13.3866 13.5978 12.7403 14 12 14C11.1021 14 10.3209 13.4027 10.0772 12.5532C10.0262 12.3754 10 12.1899 10 12C10 11.2597 10.4022 10.6134 11 10.2676V9.58519L9.96841 8.5536Z" fill="#1B1C1D"/>
<rect x="2.81" y="4.2218" width="2" height="24" transform="rotate(-45 2.81 4.2218)" fill="#1B1C1D"/>
</svg>

<svg xmlns="http://www.w3.org/2000/svg" width="24" height="24" fill="#1b1c1d"  xmlns:v="https://vecta.io/nano"><path fill-rule="evenodd" d="M6.897 5.482C5.05 6.673 3.481 8.566 2.211 11.106a2 2 0 0 0 0 1.789C4.524 17.521 7.83 20.002 12 20.002c2.564 0 4.801-.937 6.681-2.735l-1.414-1.414c-1.517 1.432-3.273 2.149-5.268 2.149-3.333 0-6-2-8-6.001 1.208-2.417 2.66-4.103 4.355-5.06L6.897 5.482zm11.69 8.862c.503-.685.974-1.467 1.413-2.344-2-4-4.667-6-8-6-.549 0-1.081.054-1.594.163L8.788 4.545C9.793 4.184 10.865 4 12 4c4.17 0 7.476 2.48 9.789 7.106a2 2 0 0 1 0 1.789c-.538 1.077-1.13 2.037-1.774 2.877l-1.427-1.427zM9.968 8.554C8.79 9.25 8 10.533 8 12a4 4 0 0 0 4 4c1.467 0 2.75-.79 3.446-1.968L14.415 13h-.682a2 2 0 0 1-3.655-.447C10.026 12.375 10 12.19 10 12a2 2 0 0 1 1-1.732v-.682L9.968 8.554z"/><path d="M2.81 4.222l1.414-1.414 16.971 16.971-1.414 1.414z"/></svg>
